X: 1
T: The Long Drop
R: reel
M: 4/4
L: 1/8
C: Richard Twomey
K: Gmaj
|:gedg edBA|GEEE EDB,D|~G3A BABc|dBeB dGBd|
gedg edBA|GEEE EDB,D|~G3A (3Bcd ge|1 dBAc BGG2 :|2 dBAc BG (3Bcd |
|:gBBA B2gB|BBgb aged|cBcd ~e3f|gedg agef|
gBBA B2gB|BBgb aged|cBcd edge|dBAc BGG2:|
